!!!COM: Ludwig van Beethoven
!!!CNT: Deutsch
!!!TXO: Deutsch
!!!OTL: "Vom Tode"
!!!LYR: Gellert, Christian Fu2rchtegott
!!!OPS: Op. 48
!!!ONM: No. 3
!!!ENC: Amanda Harris
!!!YOR: Sa2mtliche Lieder, Band 1
!!!YOR: G. Henle Verlag
!!!ODT: 1801/
!!NB: Vocal melody and text encoded.
**kern	**silbe
*clefG2	*
*k[f#c#g#]	*
*M3/4	*
*MM[ma2ssig und eher langsam als geschwind]	*
=2	=2
{2f#	{Mei-
4f#	-ne
=3	=3
2f#	Le-
4f#	-bens-
=4	=4
2f#	-zeit
4f#	ver-
=5	=5
2.gn	-streicht,
=6	=6
2gn	stu2nd-
4gn	-lich
=7	=7
2gn	eil'
4gn	ich
=8	=8
2ccn	zu
4b	dem
=9	=9
2b	Gra-
4a#}	-be;}
=10	=10
4r	.
{4a#	{und
4a#	was
=11	=11
2ee	ist's
4ff#	das
=12	=12
2ggn	ich
4a#	viel-
=13	=13
2a#	-leicht,
4b	|
=14	=14
4r	.
4b	das
4b	ich
=15	=15
2b#	noch
4b#	zu
=16	=16
2b#	le-
4b#	-ben
=17	=17
2cc#	ha-
4c#}	-be?}
=22	=22
{2c#	{Denk,
4c#	o
=23	=23
2f#	Mensch!
4g#	an
=24	=24
2a	dei-
4f#	-nen
=25	=25
2.c#	Tod;
=26	=26
2e#	sa2u-
4e#	-me
=27	=27
2e#	nicht,
4e#	denn
=28	=28
2e#	eins
4e#	ist
=29	=29
2.f#}	not,}
=30	=30
{2gn	{sa2u-
4gn	-me
=31	=31
[2.gn	nicht,
=32	=32
2gn]	|
4f#	denn
=33	=33
2.cc#	eins
=34	=34
2.c#	ist
=35	=35
2.d	not,
=36	=36
2f#	sa2u-
4f#	-me
=37	=37
[2.gn	nicht
=38	=38
2gn]	|
4f#	denn
=39	=39
2.cc#	eins
=40	=40
2.c#	ist
=41	=41
2.f#}	not.}
*-	*-
